frontend/src/assets/logoHeader.svg

<svg width="145" height="47" viewBox="0 0 145 47" fill="none" xmlns="http://www.w3.org/2000/svg">
<path d="M13.8398 23.9482L6.09457 31.8883V43.03H0V0H6.09457V24.0763L29.2032 0H36.1865L18.0298 19.3379L37.4562 43.03H30.3459L13.8398 23.9482Z" fill="#FF6060"/>
<path d="M81.8958 39.5722L84.3082 34.9619C87.1015 36.8829 91.4185 38.2916 95.6085 38.2916C101.068 38.2916 103.227 36.6267 103.227 33.8093C103.227 26.5096 82.7845 32.7848 82.7845 19.8502C82.7845 13.9591 87.9903 10.1172 96.2434 10.1172C100.433 10.1172 105.258 11.2698 108.052 13.0627L105.512 17.673C102.592 15.7521 99.4176 15.1117 96.2434 15.1117C91.1646 15.1117 88.6252 17.0327 88.6252 19.594C88.6252 27.278 109.067 21.0027 109.067 33.6812C109.067 39.5722 103.735 43.2861 95.1007 43.2861C89.8949 43.4142 84.5621 41.7493 81.8958 39.5722Z" fill="#FF6060"/>
<path d="M145 23.3079V43.03H139.413V38.6758C137.509 41.6213 133.827 43.2861 128.748 43.2861C121.384 43.2861 116.813 39.3161 116.813 33.6812C116.813 28.4306 120.114 24.2044 129.764 24.2044H139.032V23.0518C139.032 18.0573 136.112 15.2398 130.398 15.2398C126.589 15.2398 122.653 16.6485 120.114 18.6976L117.701 14.2153C121.003 11.5259 125.828 9.98914 131.033 9.98914C140.048 10.1172 145 14.4714 145 23.3079ZM139.159 33.0409V28.4306H130.145C124.304 28.4306 122.653 30.7357 122.653 33.4251C122.653 36.6267 125.32 38.6758 129.764 38.6758C134.208 38.8039 137.763 36.8829 139.159 33.0409Z" fill="#FF6060"/>
<path d="M63.1042 34.4496V43.158L66.7864 40.9809V32.2725L63.1042 34.4496Z" fill="#FF6060"/>
<path d="M73.2619 23.8202L58.1524 14.9837L49.7724 10.1172L41.5193 24.5886L41.6463 38.1635L56.6288 47L58.1524 46.1036V33.297L64.8819 21.3869L71.7383 25.357V38.1635L73.2619 37.267V23.8202Z" fill="#FF6060"/>
</svg>

<svg xmlns="http://www.w3.org/2000/svg" fill="none" viewBox="0 0 145 47"><g fill="#FF6060"><path d="m13.84 23.948-7.745 7.94V43.03H0V0h6.095v24.076L29.203 0h6.984L18.03 19.338 37.456 43.03h-7.11L13.84 23.948ZM81.896 39.572l2.412-4.61c2.793 1.92 7.11 3.33 11.3 3.33 5.46 0 7.619-1.665 7.619-4.483 0-7.3-20.443-1.024-20.443-13.959 0-5.89 5.206-9.733 13.46-9.733 4.189 0 9.014 1.153 11.808 2.946l-2.54 4.61c-2.92-1.92-6.094-2.561-9.269-2.561-5.078 0-7.618 1.92-7.618 4.482 0 7.684 20.442 1.409 20.442 14.087 0 5.891-5.332 9.605-13.966 9.605-5.206.128-10.539-1.537-13.205-3.714ZM145 23.308V43.03h-5.587v-4.354c-1.904 2.945-5.586 4.61-10.665 4.61-7.364 0-11.935-3.97-11.935-9.605 0-5.25 3.301-9.477 12.951-9.477h9.268v-1.152c0-4.995-2.92-7.812-8.634-7.812-3.809 0-7.745 1.408-10.284 3.458l-2.413-4.483c3.302-2.69 8.127-4.226 13.332-4.226 9.015.128 13.967 4.482 13.967 13.319Zm-5.841 9.733v-4.61h-9.014c-5.841 0-7.492 2.305-7.492 4.994 0 3.202 2.667 5.25 7.111 5.25 4.444.129 7.999-1.792 9.395-5.634ZM63.104 34.45v8.708l3.682-2.177v-8.709l-3.682 2.178Z"/><path d="m73.262 23.82-15.11-8.836-8.38-4.867L41.52 24.59l.127 13.575L56.63 47l1.523-.896V33.297l6.73-11.91 6.856 3.97v12.806l1.524-.896V23.82Z"/></g></svg>
